X: 1
T:Andrew Carr
M:9/8
L:1/8
K:G
B2ddBddBG|B2eefgg2d|B2ddBddef|g2GGABA2G:||:g2edBGdBG|g2eegef2d|gfedBddef
|g2ggABA2G:|
% Output from ABC2Win  Version 2.1 i on 3/3/2000
